X: 27
T: Ievan Polkka
Z: Andrea Abler
S: https://thesession.org/tunes/418#setting52865
R: polka
M: 2/4
L: 1/8
K: Bmin
|:"Bm"B2Bc| dB Bd|"A"cA Ac |"Bm"d/c/B/A/ BF|
B2 Bc| dB Bd|"A"ef/e/ dc |"Bm"BA BF:|
|:f2 df |"A"ec cd|ef/e/ dc |"Bm"Bc de|f2 df|
"A"ec cd|df/e/ dc |"Bm"BA B2:|

%-------------------- TUNE SEPARATOR --------------------%

